images/wax.svg

<svg height="250" viewBox="0 0 250 250" width="250" xmlns="http://www.w3.org/2000/svg"><g fill-rule="evenodd"><path d="m250 125c0 69.035156-55.964844 125-125 125s-125-55.964844-125-125 55.964844-125 125-125 125 55.964844 125 125zm0 0" fill="#f89022"/><path d="m218.75 148.140625h-18.46875l-13.101562-11.21875-13.054688 11.171875h-15.609375l-7.460937-9.0625h-25.71875l6.507812-8.039062h12.648438l-9.632813-11.78125-33.632813 40.945312h-15.601562l9.734375-11.890625h-16.257813l-8.789062-24.640625-8.71875 24.453125h-16.492188l-13.851562-38.382813h12.65625l9.3125 26.140626 9.28125-26.023438h15.625l9.257812 25.96875 9.25-25.976562h12.695313l-13.96875 38.460937 3.109375-3.796875 28.53125-34.726562h15.703125l23.742187 28.96875 11.421876-9.820313-36.148438-31.234375h18.554688zm-18.320312-23.21875-8.710938-7.46875 8.695312-7.40625 17.578126.015625zm0 0" fill="#fff"/></g></svg>

<svg xmlns="http://www.w3.org/2000/svg" xmlns:xlink="http://www.w3.org/1999/xlink" width="250px" height="250px" viewBox="0 0 250 250" version="1.1">
<g id="surface1">
<path style=" stroke:none;fill-rule:evenodd;fill:rgb(97.254902%,56.470591%,13.333334%);fill-opacity:1;" d="M 250 125 C 250 194.035156 194.035156 250 125 250 C 55.964844 250 0 194.035156 0 125 C 0 55.964844 55.964844 0 125 0 C 194.035156 0 250 55.964844 250 125 Z M 250 125 "/>
<path style=" stroke:none;fill-rule:evenodd;fill:rgb(100%,100%,100%);fill-opacity:1;" d="M 218.75 148.140625 L 200.28125 148.140625 L 187.179688 136.921875 L 174.125 148.09375 L 158.515625 148.09375 L 151.054688 139.03125 L 125.335938 139.03125 L 131.84375 130.992188 L 144.492188 130.992188 L 134.859375 119.210938 L 101.226562 160.15625 L 85.625 160.15625 L 95.359375 148.265625 L 79.101562 148.265625 L 70.3125 123.625 L 61.59375 148.078125 L 45.101562 148.078125 L 31.25 109.695312 L 43.90625 109.695312 L 53.21875 135.835938 L 62.5 109.8125 L 78.125 109.8125 L 87.382812 135.78125 L 96.632812 109.804688 L 109.328125 109.804688 L 95.359375 148.265625 L 98.46875 144.46875 L 127 109.742188 L 142.703125 109.742188 L 166.445312 138.710938 L 177.867188 128.890625 L 141.71875 97.65625 L 160.273438 97.65625 Z M 200.429688 124.921875 L 191.71875 117.453125 L 200.414062 110.046875 L 217.992188 110.0625 Z M 200.429688 124.921875 "/>
</g>
</svg>
